X:1075
T: Annesbrook House
T: Teach Annesbrook
S: B.Breathnach:"Ceol Rince na hEireann" IV/123
Z: B.Black
L: 1/8
M: 4/4
R: reel
K: C
GE|DEFG ABAG|cEdE edcd|eage dfed|c2 ec Ad d2|
DEFG ABAG|cE (3EEE edda|geae cedc|AcGE D2 :|
cd|eaab ageg|Acec gcAG|eage dfed|ecgc eddg|
eage dfed|c2 ec Ad d2|geae cedc|AcGE D2 :|
